!!!!SEGMENT: pl-wn--sd-xvi-o-268_anonim--kancjonal-zamoyskich-decalogus-pamietajmy-krzescianie-ze-nam-dal-bog-na-chowanie.krn
!!!cenid: 15xx:824
!!!COM: Anonim
!!!COM-rismID: pe30004985
!!!CDT:
!!!CNT:
!!!GTL: Kancjonał Zamoyskich
!!!OTL: Decalogus/Pamiętajmy krześcianie że nam dał Bóg na chowanie
!!!PDT: 1558
!!!AGN:
!!!SMS-siglum: PL-Wn
!!!SMS-shelfmark: SD XVI.O.268
!!!SMS-shelfwork: G
!!!SMS-variant:
!!!SMS-altvar:
!!!NIFC-rismSourceID:
!!!NIFC-rismChildID:
!!!NIFC-islandoraID: none
!!!URL-pdf-islandora:
!!!URL-scan: https://polona2.pl/item/decalogvs-to-yest-dziesyecioro-przykazanie-boze-ku-spyewanyu-dla-dzyatek-krotce-vczynione,MTE3MTQ4Nw/4 @EN{Scan on Polona} @PL{Skany w portalu Polona}
!!!IIIF: https://polona2.pl/iiif/item/MTE3MTQ4Nw/manifest.json
!!!ONB-nifc: UWAGA: proszę zapisywać tylko teksty występujące bezpośrednio pod nutami
!!!AIN: 1 alto 1 bass 1 soprn 1 tenor
!!!key: F:mix
**kern	**text	**mod-text	**kern	**text	**mod-text	**kern	**text	**mod-text	**kern	**text	**mod-text
*part4	*part4	*part1	*part3	*part3	*part1	*part2	*part2	*part1	*part1	*part1	*part1
*staff4	*staff4	*staff1	*staff3	*staff3	*staff1	*staff2	*staff2	*staff1	*staff1	*staff1	*staff1
*I"BAS.	*	*	*I"TENOR.	*	*	*I"ALT.	*	*	*I"DISCANT.	*	*
*mI"Basso	*	*	*mI"Tenore	*	*	*mI"Alto	*	*	*mI"Soprano	*	*
*I'B	*	*	*I'T	*	*	*I'A	*	*	*I'S	*	*
*Ibass	*	*	*Itenor	*	*	*Ialto	*	*	*Isoprn	*	*
*ICvox	*	*	*ICvox	*	*	*ICvox	*	*	*ICvox	*	*
*clefF4	*	*	*clefC4	*	*	*clefC3	*	*	*clefC1	*	*
*	*	*	*mclefGv2	*	*	*mclefG2	*	*	*mclefG2	*	*
*k[b-]	*	*	*k[b-]	*	*	*k[b-]	*	*	*k[b-]	*	*
*F:mix	*	*	*F:mix	*	*	*F:mix	*	*	*F:mix	*	*
*M2/1	*	*	*M2/1	*	*	*M2/1	*	*	*M2/1	*	*
*met(C)	*	*	*met(C)	*	*	*met(C)	*	*	*met(C)	*	*
*mmet(c|)	*	*	*mmet(c|)	*	*	*mmet(c|)	*	*	*mmet(c|)	*	*
=1-	=1-	=1-	=1-	=1-	=1-	=1-	=1-	=1-	=1-	=1-	=1-
*xywh-#7:768,387,1935,828	*	*	*xywh-#6:2803,306,2103,932	*	*	*xywh-#7:2782,341,2184,926	*	*	*xywh-#6:692,378,1998,869	*	*
2F\	Pa-	Pa-	2F/	Pa-	Pa-	2c/	Pa-	Pa-	2f/	Pa-	Pa-
2C/	-mie-	-mię-	2G/	-mię-	-mię-	2c/	-mię-	-mię-	2e/	-mie-	-mię-
2F\	-tay-	-taj-	2A/	-tay-	-taj-	2c/	-ta-	-taj-	2f/	-tay-	-taj-
2BB-/	-my	-my	2B-\	-mi	-my	2B-/	-i	-my	2d/	-my	-my
=2-	=2-	=2-	=2-	=2-	=2-	=2-	=2-	=2-	=2-	=2-	=2-
2F\	krze-	krze-	2A/	Krze-	krze-	2c/	Krze-	krze-	2c/	krze-	krze-
2F\	-ſci-	-ści-	2A/	-ſci-	-ści-	2c/	-ſci-	-ści-	1f	-ſci-	-ści-
1C	-a-	-a-	1G	-a-	-a-	1c	-a-	-a-	.	.	.
.	.	.	.	.	.	.	.	.	2e/	-a-	-a-
=3-	=3-	=3-	=3-	=3-	=3-	=3-	=3-	=3-	=3-	=3-	=3-
!LO:SIC:v:t=custos F	!	!	!LO:SIC:v:t=custos c	!	!	!LO:SIC:v:t=custos f	!	!	!	!	!
1FF	-nie	-nie	1F	-nie	-nie	1c	-nie/	-nie	1f	-nie/	-nie
!LO:LB:g=original	!	!	!LO:LB:g=original	!	!	!LO:LB:g=original	!	!	!	!	!
*xywh-#7:774,1186,1923,631	*	*	*xywh-#6:2815,1186,2004,672	*	*	*xywh-#7:2793,1235,2016,677	*	*	*	*	*
2.F\	że	że	2.c\	że	że	2.f\	że	że	2.a\	że	że
!	!	!	!	!	!	!	!	!	!LO:SIC:v:t=custos a	!	!
4F\	nam	nam	4c\	nam	nam	4f\	nam	nam	4a\	nam	nam
!	!	!	!	!	!	!	!	!	!LO:LB:g=original	!	!
=4-	=4-	=4-	=4-	=4-	=4-	=4-	=4-	=4-	=4-	=4-	=4-
*	*	*	*	*	*	*	*	*	*xywh-#6:698,1189,2004,672	*	*
2F\	dał	dał	2c\	dał	dał	2f\	dał	dał	2a\	Dał	dał
2F\	Bog	Bóg	2A/	Bog	Bóg	2f\	Bog	Bóg	2a\	Bog	Bóg
2BB-/	na	na	2d\	na	na	2f\	na	na	2b-\	na	na
2F\	cho-	cho-	2c\	cho-	cho-	2f\	cho-	cho-	1a\	cho-	cho-
=5-	=5-	=5-	=5-	=5-	=5-	=5-	=5-	=5-	=5-	=5-	=5-
1G	-wa-	-wa-	1B-	-wa-	-wa-	1d	-wa-	-wa-	.	.	.
.	.	.	.	.	.	.	.	.	2g/	-wa-	-wa-
!LO:SIC:v:t=custos F	!	!	!LO:SIC:v:t=custos A	!	!	!LO:SIC:v:t=custos c	!	!	!	!	!
1D	-nie/	-nie	1A	-nie/	-nie	1d	-nie/	-nie	1a	-nie.	-nie
!LO:LB:g=original	!	!	!LO:LB:g=original	!	!	!LO:LB:g=original	!	!	!	!	!
=6-	=6-	=6-	=6-	=6-	=6-	=6-	=6-	=6-	=6-	=6-	=6-
*xywh-#7:762,1782,1923,660	*	*	*xywh-#6:2798,1812,1952,683	*	*	*xywh-#7:2828,1878,1906,625	*	*	*	*	*
2F\	Dzie-	dzie-	2A/	Dzie-	dzie-	2c/	Dzie-	dzie-	2a\	Dzie-	dzie-
2F\	-ſię-	-się-	2A/	-ſię-	-się-	2f\	-ſię-	-się-	2a\	-ſię-	-się-
1.F	-cio-	-cio-	1A	-cio-	-cio-	1.f	-cio-	-cio-	2.cc\	-cio-	-cio-
!	!	!	!	!	!	!	!	!	!LO:SIC:v:t=custos a	!	!
.	.	.	.	.	.	.	.	.	4b-\	.	.
!	!	!	!	!	!	!	!	!	!LO:LB:g=original	!	!
=7-	=7-	=7-	=7-	=7-	=7-	=7-	=7-	=7-	=7-	=7-	=7-
*	*	*	*	*	*	*	*	*	*xywh-#6:750,1826,1969,631	*	*
.	.	.	1c	-ro	-ro	.	.	.	2a\	-ro	-ro
2C/	-ro	-ro	.	.	.	2e-X\	-ro	-ro	2.g/	przy-	przy-
2E-X\	przy-	przy-	2B-\	przy-	przy-	2e-\	przy-	przy-	.	.	.
.	.	.	.	.	.	.	.	.	4f/	.	.
2F\	-ka-	-ka-	2A/	-ka-	-ka-	2d\	-ka-	-ka-	1f/	-ka-	-ka-
=8-	=8-	=8-	=8-	=8-	=8-	=8-	=8-	=8-	=8-	=8-	=8-
1C	-za-	-za-	1G	-za-	-za-	1c	-za-	-za-	.	.	.
.	.	.	.	.	.	.	.	.	2e/	-za-	-za-
!LO:SIC:v:t=custos F	!	!	!LO:SIC:v:t=custos c	!	!	!LO:SIC:v:t=custos f	!	!	!	!	!
1FF	-nie/	-nie	1F	-nie/	-nie	1c	-nie/	-nie	1f	-nie.	-nie
!LO:LB:g=original	!	!	!LO:LB:g=original	!	!	!LO:LB:g=original	!	!	!	!	!
=9-	=9-	=9-	=9-	=9-	=9-	=9-	=9-	=9-	=9-	=9-	=9-
*xywh-#7:817,2419,1900,654	*	*	*xywh-#6:2846,2444,1877,718	*	*	*xywh-#7:2807,2489,1871,654	*	*	*	*	*
2.F\	na	na	2.c\	na	na	2.f\	na	na	2.a\	na	na
!	!	!	!	!	!	!	!	!	!LO:SIC:s=4b-	!	!
4BB-/	dwu	dwu	4d\	dwu	dwu	4f\	dwu	dwu	4a\	dwu	dwu
2F\	ta-	ta-	2c\	ta-	ta-	2f\	ta-	ta-	2a\	ta-	ta-
!	!	!	!	!	!	!	!	!	!LO:SIC:v:t=custos g	!	!
2F\	-bli-	-bli-	2A/	-bli-	-bli-	2c/	-bli-	-bli-	2a\	-bli-	-bli-
!	!	!	!	!	!	!	!	!	!LO:LB:g=original	!	!
=10-	=10-	=10-	=10-	=10-	=10-	=10-	=10-	=10-	=10-	=10-	=10-
*	*	*	*	*	*	*	*	*	*xywh-#6:773,2444,1969,648	*	*
2E-X\	-cach	-cach	2B-\	-cach	-cach	2e-X\	-cach	-cach	2g/	-cach	-cach
2F\	pi-	pi-	2A/	pi-	pi-	2d\	pi-	pi-	1f	pi-	pi-
1C	-ſa-	-sa-	1G	-ſa-	-sa-	1c	-ſa-	-sa-	.	.	.
.	.	.	.	.	.	.	.	.	2e/	-ſa-	-sa-
=11-	=11-	=11-	=11-	=11-	=11-	=11-	=11-	=11-	=11-	=11-	=11-
!LO:SIC:s=0FF;	!	!	!LO:SIC:s=0F;	!	!	!LO:SIC:s=0c;	!	!	!LO:SIC:s=0f;	!	!
0FFl	-ne.	-ne.	0Fl	-ne.	-ne.	0cl	-ne.	-ne.	0fl	-ne.	-ne.
==	==	==	==	==	==	==	==	==	==	==	==
*-	*-	*-	*-	*-	*-	*-	*-	*-	*-	*-	*-
!!!system-decoration: [(*)]
!!LO:MO:ori
!!!RDF**kern: l = terminal long
!!LO:MO:end
!!!filter-modern: shed -e "s/TX(.*):t=P:/tx$1:t=P:/LG" | shed -e "s/^custos:/Xcustos:/I" | sic -sq | modori -m | autostem -r | tie -s | humtr -p | shed -e "s/-//B"
!!!ENC: Mateusz Solarz
!!!END: 2022-04-27
!!!ENC: Wojciech Jakubiak-Danek
!!!END: 2022-05-09
!!!ENC-modern: Andrzej Kubiczek
!!!END-modern: 2022-07-24
!!!ENC-iiif: Emilia Ziętek
!!!END-iiif: 2022-09-03
!!!YEC: Copyright 2022 Narodowy Instytut Fryderyka Chopina (https://polishscores.org)
!!!YEM: License CC-BY-4.0 (https://creativecommons.org/licenses/by/4.0)
